!!!COM: Dentice, Scipione
!!!CDT:
!!!PTL: Il quinto libro de madrigali a cinque voci
!!!PPP: Naples
!!!PPR: Sottile
!!!PDT: 1607
!!!PUB-format:
!!!RISM: D 1665
!!!rime: 326
!!!OTL:	Lunge da gli occhi vostri
!!!AGN: Madrigal
!!!SCT: Trm0326d
!!!SCA: Trm0326d
!!!original-voices: 5
!!!extant-voices: 5
!!!complete: Y
!!!final: A
**kern	**text	**kern	**text	**kern	**text	**kern	**text	**kern	**text
*part5	*part5	*part4	*part4	*part3	*part3	*part2	*part2	*part1	*part1
*staff5	*staff5	*staff4	*staff4	*staff3	*staff3	*staff2	*staff2	*staff1	*staff1
*I"Basso	*	*I"Tenore	*	*I"Quinto	*	*I"Alto	*	*I"Canto	*
*I'B	*	*I'T	*	*I'V	*	*I'A	*	*I'C	*
*oclefF4	*	*oclefC4	*	*oclefC3	*	*oclefC2	*	*oclefC1	*
*clefF4	*	*clefGv2	*	*clefG2	*	*clefG2	*	*clefG2	*
*k[]	*	*k[]	*	*k[]	*	*k[]	*	*k[]	*
*omet(C)	*	*omet(C)	*	*omet(C)	*	*omet(C)	*	*omet(C)	*
*M4/2	*	*M4/2	*	*M4/2	*	*M4/2	*	*M4/2	*
=1	=1	=1	=1	=1	=1	=1	=1	=1	=1
1A	Lun-	1c	Lun-	1e	Lun-	1a	Lun-	2r	.
.	.	.	.	.	.	.	.	1ee	Lun-
2.E	-ge	2.B	-ge	2.e	-ge	2.g#X	-ge	.	.
.	.	.	.	.	.	.	.	4b	-ge
4E	da	4B	da	4e	da	4g#i	da	4b	da
=2	=2	=2	=2	=2	=2	=2	=2	=2	=2
4E	gl'oc-	4B	gl'oc-	4e	gl'oc-	4g#i	gl'oc-	4b	gl'oc-
4A	-chi	4A	-chi	4e	-chi	4a	-chi	4cc#X	-chi
1G	vo-	1d	vo-	1g	vo-	1b	vo-	1dd	vo-
2G	-stri	4d	-stri	2d	-stri	2gnXi	-stri	2b	-stri
.	.	4B	Io	.	.	.	.	.	.
=3	=3	=3	=3	=3	=3	=3	=3	=3	=3
4r	.	1G	vi-	4r	.	4r	.	4r	.
4C	Io	.	.	4e	Io	4g	Io	4cc	Io
1C	vi-	.	.	1c	vi-	1e	vi-	1g	vi-
.	.	2G	-vo,	.	.	.	.	.	.
2C	-vo,	4r	.	2c	-vo,	2e	-vo,	2g	-vo,
.	.	4e	<Io	.	.	.	.	.	.
=4	=4	=4	=4	=4	=4	=4	=4	=4	=4
4r	.	2.c	vi-	4r	.	4r	.	4r	.
4c	<Io	.	.	4e	<Io	4g	<Io	4ee	<Io
2.F	vi-	.	.	2.f	vi-	4.a	vi-	2.cc	vi-
.	.	4c	-vo>	.	.	.	.	.	.
.	.	.	.	.	.	8a	-vo>	.	.
.	.	4c	del	.	.	4a	del	.	.
4F	-vo>	4A	pen-	4f	-vo>	4f	pen-	4cc	-vo>
4F	del	2c	-sie-	4f	del	[2a	-sie-	4cc	del
4A	pen-	.	.	4e	pen-	.	.	4a	pen-
=5	=5	=5	=5	=5	=5	=5	=5	=5	=5
2E	-sie-	2B	-ro	2e	-sie-	2a]	.	2b	-sie-
4E	-ro	1E	Pen-	4e	-ro	4g#X	-ro	4b	-ro
4AA	Pen-	.	.	4e	Pen-	4a	Pen-	4cc	Pen-
2C	-so-	.	.	2c	-so-	[1e	-so-	2g	-so-
2GG	-sa	2G	-so-	2d	-sa	.	.	2b-X	-sa
=6	=6	=6	=6	=6	=6	=6	=6	=6	=6
0AA	vi-	2C	-sa	4c	vi-	2e]	.	0a	vi-
.	.	.	.	4A	.	.	.	.	.
.	.	4F	vi-	1d	.	2f	-sa	.	.
.	.	8EL	.	.	.	.	.	.	.
.	.	8DJ	.	.	.	.	.	.	.
.	.	1A	.	.	.	1e	vi-	.	.
.	.	.	.	2c#X	.	.	.	.	.
=7	=7	=7	=7	=7	=7	=7	=7	=7	=7
1D	-ta;	1A	-ta;	1d	-ta;	1f#X	-ta;	1a	-ta;
4r	.	4r	.	4r	.	4r	.	4r	.
4D	e	2A	e	4d	e	4f#X	e	4a	e
2D	vi-	.	.	2f#X	vi-	2a	vi-	2dd	vi-
.	.	[4d	vi-	.	.	.	.	.	.
=8	=8	=8	=8	=8	=8	=8	=8	=8	=8
2G	-vo,	4d]	.	2g	-vo,	2d	-vo,	2b	-vo,
.	.	4B	-vo,	.	.	.	.	.	.
4r	.	4r	.	4r	.	4r	.	4r	.
4E	<e	2B	<e	4g	<e	4e	<e	4b	<e
2E	vi-	.	.	2.e	vi-	2g#X	vi-	2ee	vi-
.	.	2e	vi-	.	.	.	.	.	.
2A	-vo>	.	.	.	.	2a	-vo>	2cc#X	-vo>
.	.	[4A	-vo>	4e	-vo>	.	.	.	.
=9	=9	=9	=9	=9	=9	=9	=9	=9	=9
2D	per-	4A]	.	2f	per-	2a	per-	4dd	per-
.	.	4d	per-	.	.	.	.	4a	-ch'io
2E	-ch'io	2G	-ch'io	4e	-ch'io	2g	-ch'io	2.cc	spe-
.	.	.	.	2g	spe-	.	.	.	.
1G	spe-	1d	spe-	.	.	1g	spe-	.	.
.	.	.	.	8fL	.	.	.	8bL	.
.	.	.	.	8eJ	.	.	.	8aJ	.
.	.	.	.	2d	.	.	.	2b	.
=10	=10	=10	=10	=10	=10	=10	=10	=10	=10
2C	-ro.	1c	-ro.	2e	-ro.	2g	-ro.	2cc	-ro.
4F	Spe-	.	.	4c	Spe-	4f	Spe-	4a	Spe-
4F	-r'il	.	.	4c	-r'il	4f	-r'il	4a	-r'il
2F	dol-	1r	.	2c	dol-	2f	dol-	2a	dol-
4D	-ce	.	.	4d	-ce	4f#X	-ce	4b	-ce
4C	ri-	.	.	4e	ri-	4g	ri-	4cc	ri-
=11	=11	=11	=11	=11	=11	=11	=11	=11	=11
2D	-tor-	4d	Spe-	2A	-tor-	2f#X	-tor-	2a	-tor-
.	.	4d	-r'il	.	.	.	.	.	.
2G	-no,	2d	dol-	4G	-no,	2g	-no,	2b	-no,
.	.	.	.	2d	ri-	.	.	.	.
4r	.	4B	-ce	.	.	4r	.	4r	.
4E	ri-	4e	ri-	2g	-tor-	4g	ri-	4cc#X	ri-
2D	-tor-	2A	-tor-	.	.	2a	-tor-	2dd	-tor-
.	.	.	.	4f#X	.	.	.	.	.
=12	=12	=12	=12	=12	=12	=12	=12	=12	=12
1GG	-no;	1G	-no;	1g	-no;	1b	-no;	1dd	-no;
1r	.	4r	.	1r	.	4r	.	4r	.
.	.	4c	E	.	.	2cc	E	2ee	E
.	.	4e	s'av-	.	.	.	.	.	.
.	.	4A	-ver-	.	.	8b	s'av-	8dd	s'av-
.	.	.	.	.	.	8a	-ver-	8cc	-ver-
=13	=13	=13	=13	=13	=13	=13	=13	=13	=13
0r	.	4.e	-rà	0r	.	8g	-rà	4.b	-rà
.	.	.	.	.	.	8e	che	.	.
.	.	.	.	.	.	8f#X	nel	.	.
.	.	8E	che	.	.	8g#X	fe-	8b	che
.	.	8A	nel	.	.	8aL	-li-	8cc	nel
.	.	8B	fe-	.	.	16gnXi	.	8dd	fe-
.	.	.	.	.	.	16fnXi	.	.	.
.	.	8c	-li-	.	.	8eJ	.	8ee	-li-
.	.	8A	-ce	.	.	8f#XJL	-ce	8cc	-ce
.	.	2G	gior-	.	.	2g	gior-	2b	gior-
.	.	4G	-no	.	.	4d	-no	4b	-no
.	.	8c	La	.	.	8e	La	8g	La
.	.	8c	mia	.	.	8e	mia	8g	mia
=14	=14	=14	=14	=14	=14	=14	=14	=14	=14
0r	.	4c	ca-	0r	.	4e	ca-	4g	ca-
.	.	8B	-ra	.	.	8d	-ra	8g#X	-ra
.	.	8A	spe-	.	.	8e	spe-	8a	spe-
.	.	4e	-ran-	.	.	4.g	-ran-	4.b	-ran-
.	.	4B	-za in	.	.	.	.	.	.
.	.	.	.	.	.	8g	-za in	8dd	-za in
.	.	2.c	me	.	.	4e	me	4gnXi	me
.	.	.	.	.	.	4e	si	4g	si
.	.	.	.	.	.	[2f	mo-	2a	mo-
.	.	4c	si	.	.	.	.	.	.
=15	=15	=15	=15	=15	=15	=15	=15	=15	=15
1r	.	2B	mo-	2r	.	2f]	.	1g	-ia,
.	.	4.c	-ia,	4r	.	2e	-ia,	.	.
.	.	.	.	4e	in	.	.	.	.
.	.	8c	in	.	.	.	.	.	.
4r	.	4G	me	4B	me	2r	.	4r	.
4E	in	4G	si	4B	si	.	.	4g	in
4C	me	[2A	mo-	[2c	mo-	2r	.	4e	me
4C	si	.	.	.	.	.	.	4e	si
=16	=16	=16	=16	=16	=16	=16	=16	=16	=16
1D	mo-	2A]	.	4c]	.	1r	.	1.f	mo-
.	.	.	.	8BL	.	.	.	.	.
.	.	.	.	8AJ	.	.	.	.	.
.	.	4G	.	2B	.	.	.	.	.
.	.	4F	.	.	.	.	.	.	.
1C	-ia,	2A	.	1c	-ia,	2r	.	.	.
.	.	2G	-ia,	.	.	4r	.	2e	-ia,
.	.	.	.	.	.	8g	Spe-	.	.
.	.	.	.	.	.	8g	-ro	.	.
=17	=17	=17	=17	=17	=17	=17	=17	=17	=17
0r	.	4r	.	4r	.	4g	vi-	4r	.
.	.	8c	Spe-	8e	Spe-	8g	-ver	8cc	Spe-
.	.	8c	-ro	8e	-ro	8a	di	8cc	-ro
.	.	4c	vi-	4e	vi-	8eL	gio-	4cc	vi-
.	.	.	.	.	.	8f	.	.	.
.	.	8c	-ver	8e	-ver	8g	.	8cc	-ver
.	.	8e	di	8g	di	16f	.	8b	di
.	.	.	.	.	.	16gJ	.	.	.
.	.	8AL	gio-	2e	gio-	8aL	.	2cc	gio-
.	.	8B	.	.	.	8gJ	.	.	.
.	.	8c	.	.	.	2g	.	.	.
.	.	16B	.	.	.	.	.	.	.
.	.	16cJ	.	.	.	.	.	.	.
.	.	4d	.	4d	-ia,	.	.	2a	-ia,
.	.	4D	-ia,	8d	Spe-	4f#X	.	.	.
.	.	.	.	8d	-ro	.	.	.	.
=18	=18	=18	=18	=18	=18	=18	=18	=18	=18
8G	Spe-	1r	.	4d	vi-	2g	-ia,	4r	.
8G	-ro	.	.	.	.	.	.	.	.
2G	vi-	.	.	8d	-ver	.	.	8b	Spe-
.	.	.	.	8e	di	.	.	8b	-ro
.	.	.	.	8BL	gio-	2r	.	4b	vi-
.	.	.	.	8c	.	.	.	.	.
8G	-ver	.	.	8d	.	.	.	8b	-ver
8A	di	.	.	16c	.	.	.	8cc	di
.	.	.	.	16dJ	.	.	.	.	.
8EL	gio-	2r	.	2e	.	4r	.	8gL	gio-
8F	.	.	.	.	.	.	.	8a	.
8G	.	.	.	.	.	8e	Spe-	8b	.
16F	.	.	.	.	.	8e	-ro	16a	.
16GJ	.	.	.	.	.	.	.	16bJ	.
4.A	.	4r	.	2c	-ia,	4e	vi-	4.cc	.
.	.	8c	Spe-	.	.	8e	-ver	.	.
8G	.	8c	-ro	.	.	8e	di	8b	.
=19	=19	=19	=19	=19	=19	=19	=19	=19	=19
1F	.	4c	vi-	0r	.	8AL	gio-	1a	.
.	.	.	.	.	.	8B	.	.	.
.	.	8c	-ver	.	.	8c	.	.	.
.	.	8d	di	.	.	16B	.	.	.
.	.	.	.	.	.	16cJ	.	.	.
.	.	8AL	gio-	.	.	1d	.	.	.
.	.	8BJ	.	.	.	.	.	.	.
.	.	2c	.	.	.	.	.	.	.
2G	-ia,	.	.	.	.	.	.	1g	-ia,
.	.	4B	.	.	.	.	.	.	.
2r	.	2c	-ia,	.	.	2e	-ia,	.	.
=20	=20	=20	=20	=20	=20	=20	=20	=20	=20
2r	.	4r	.	4r	.	4r	.	4r	.
.	.	2c	E	4e	E	2g	E	4cc	E
4r	.	.	.	4g	s'av-	.	.	2.ee	s'av-
2A	E	8B	s'av-	4c	-ver-	2a	s'av-	.	.
.	.	8A	-ver-	.	.	.	.	.	.
.	.	2c	-rà	8e	-rà,	.	.	.	.
.	.	.	.	8c	<E	.	.	.	.
8G	s'av-	.	.	8B	s'av-	4e	-ver-	4a	-ver-
8F	-ver-	.	.	8A	-ver-	.	.	.	.
4.E	-rà	4r	.	4.B	-rà>	8g	-rà	2ee	-rà
.	.	.	.	.	.	8e	che	.	.
.	.	4B	che	.	.	8f	nel	.	.
8E	che	.	.	8e	che	8g	fe-	.	.
=21	=21	=21	=21	=21	=21	=21	=21	=21	=21
8A	nel	8c	nel	8c	nel	4.a	-li-	1r	.
8B	fe-	8d	fe-	8B	fe-	.	.	.	.
8c	-li-	8e	-li-	8A	-li-	.	.	.	.
8A	-ce	8c	-ce	8c	-ce	8f#X	-ce	.	.
2G	gior-	2d	gior-	2B	gior-	2g	gior-	.	.
4G	-no	4d	-no	4B	-no	4g	-no	4r	.
8C	La	8c	La	8e	La	8g	La	8cc	La
8C	mia	8G	mia	8e	mia	8g	mia	8cc	mia
4C	ca-	4G	ca-	4e	ca-	4g	ca-	4cc	ca-
8BB	-ra	8B	-ra	8d	-ra	8g	-ra	8g	-ra
8AA	spe-	8c	spe-	8c	spe-	8e	spe-	8a	spe-
=22	=22	=22	=22	=22	=22	=22	=22	=22	=22
2E	-ran-	2.G	-ran-	2B	-ran-	2e	-ran-	2.b	-ran-
2BB	-za	.	.	2d	-za	2g	-za in	.	.
.	.	4G	-za in	.	.	.	.	4dd	-za in
1r	.	2.c	me	1r	.	4e	me	4g	me
.	.	.	.	.	.	4e	si	4g	si
.	.	.	.	.	.	[2f	mo-	2a	mo-
.	.	4c	si	.	.	.	.	.	.
=23	=23	=23	=23	=23	=23	=23	=23	=23	=23
1r	.	2B	mo-	2r	.	4f]	.	1g	-ia,
.	.	.	.	.	.	8eL	.	.	.
.	.	.	.	.	.	8dJ	.	.	.
.	.	4c	-ia,	4r	.	2e	.	.	.
.	.	4c	in	4e	in	.	.	.	.
4r	.	4G	me	4B	me	2d	-ia,	4r	.
4G	in	4G	si	4B	si	.	.	4g	in
4C	me	[2A	mo-	[2c	mo-	2r	.	4e	me
4C	si	.	.	.	.	.	.	4e	si
=24	=24	=24	=24	=24	=24	=24	=24	=24	=24
1D	mo-	2A]	.	4c]	.	1r	.	1.f	mo-
.	.	.	.	8BL	.	.	.	.	.
.	.	.	.	8AJ	.	.	.	.	.
.	.	4G	.	2B	.	.	.	.	.
.	.	4F	.	.	.	.	.	.	.
1C	-ia,	2A	.	1c	-ia,	2r	.	.	.
.	.	2G	-ia,	.	.	4r	.	2e	-ia,
.	.	.	.	.	.	8g	Spe-	.	.
.	.	.	.	.	.	8g	-ro	.	.
=25	=25	=25	=25	=25	=25	=25	=25	=25	=25
0r	.	4r	.	4r	.	4g	vi-	4r	.
.	.	8c	Spe-	8e	Spe-	8g	-ver	8cc	Spe-
.	.	8c	-ro	8e	-ro	8a	di	8cc	-ro
.	.	4c	vi-	4e	vi-	8eL	gio-	4cc	vi-
.	.	.	.	.	.	8f	.	.	.
.	.	8c	-ver	8e	-ver	8g	.	8cc	-ver
.	.	8e	di	8g	di	16f	.	8b	di
.	.	.	.	.	.	16gJ	.	.	.
.	.	8AL	gio-	2e	gio-	8aL	.	2cc	gio-
.	.	8B	.	.	.	8gJ	.	.	.
.	.	8c	.	.	.	2g	.	.	.
.	.	16B	.	.	.	.	.	.	.
.	.	16cJ	.	.	.	.	.	.	.
.	.	4d	.	4d	-ia,	.	.	2a	-ia,
.	.	4D	-ia,	8d	Spe-	4f#X	.	.	.
.	.	.	.	8d	-ro	.	.	.	.
=26	=26	=26	=26	=26	=26	=26	=26	=26	=26
8G	Spe-	1r	.	4d	vi-	2g	-ia,	4r	.
8G	-ro	.	.	.	.	.	.	.	.
2G	vi-	.	.	8d	-ver	.	.	8b	Spe-
.	.	.	.	8e	di	.	.	8b	-ro
.	.	.	.	8BL	gio-	2r	.	4b	vi-
.	.	.	.	8c	.	.	.	.	.
8G	-ver	.	.	8d	.	.	.	8b	-ver
8A	di	.	.	16c	.	.	.	8cc	di
.	.	.	.	16dJ	.	.	.	.	.
8EL	gio-	4r	.	[1e	.	4r	.	8gL	gio-
8F	.	.	.	.	.	.	.	8a	.
8G	.	4e	di	.	.	4g	di	8b	.
16F	.	.	.	.	.	.	.	16a	.
16GJ	.	.	.	.	.	.	.	16bJ	.
4.A	.	8AL	gio-	.	.	4.e	gio-	8ccL	.
.	.	8B	.	.	.	.	.	8ddJ	.
.	.	8c	.	.	.	.	.	[4ee	.
16GL	.	16B	.	.	.	8f	.	.	.
16FJ	.	16AJ	.	.	.	.	.	.	.
=27	=27	=27	=27	=27	=27	=27	=27	=27	=27
1E	.	8BL	.	1e]	.	8gL	.	4ee]	.
.	.	8EJ	.	.	.	16f	.	.	.
.	.	.	.	.	.	16gJ	.	.	.
.	.	4.e	.	.	.	2a	.	8ddL	.
.	.	.	.	.	.	.	.	8ccJ	.
.	.	.	.	.	.	.	.	2b	.
.	.	16dL	.	.	.	.	.	.	.
.	.	16cJ	.	.	.	.	.	.	.
.	.	4B	.	.	.	4g#X	.	.	.
1AAl	-ia.	1Al	-ia.	1el	-ia.	1al	-ia.	1cc#Xl	-ia.
==	==	==	==	==	==	==	==	==	==
*-	*-	*-	*-	*-	*-	*-	*-	*-	*-
!!!system-decoration: [*]
!!!RDF**kern: i = editorial accidental
!!!RDF**kern: l = terminal long
!!!RISM: D 1665
!!!ENC: Emiliano Ricciardi
!!!END: 2017/11
!!!EED: Deutsch, Catherine
!!!EEV: 2018/07/09
!!!YEC: Copyright 2018 Emiliano Ricciardi, All Rights Reserved
!!!ONB: Translated from MusicXML on 2018/07/09 and edited by Craig Stuart Sapp
!!@@BEGIN:	VERSEDATA
!!@SOLERTI:	326
!!@CATALOGNUM:	Trm0326
!!@LAST_MODIFIED: 2020/07/12
!!@TITLE:		Lunge da gli occhi vostri
!!@GENRE:		madrigale
!!@MANUSRC:	F<sub>2</sub>
!!@PRINTSRC:	27, 70, 141, 145, 166, 169
!!@@BEGIN:	VERSES
!!@ABOUTIT:
!!@ABOUTEN:
!!@EDITOR:	Solerti, Angelo
!!@EDITION_TITLE: Le Rime di Torquato Tasso
!!@EDITION_LOC:	Bologna
!!@EDITION_PUB:	Romagnoli-Dall’Acqua
!!@EDITION_DATE:  1898-1902
!!@EDITION_VOL:	2
!!@EDITION_PAGE:  377
!!@TRANSLATOR:	Emiliano Ricciardi and Amyrose McCue Gill
!!@VERSE:
!!	Lunge da gli occhi vostri
!!	Io vivo del pensiero
!!	Pensosa vita; e vivo perché i' spero.
!!	Spero il lieto ritorno;
!!	E s'avverrà che nel felice giorno
!!	La mia dolce speranza in me si moia,
!!	Spero viver di gioia.
!!@TVERSE:
!!	Far from your eyes
!!	I live of thought
!!	A thoughtful life; and I live because I hope.
!!	I hope for a happy return;
!!	And if it will come to pass that on the happy day
!!	My sweet hope in me should die,
!!	I hope to live of joy.
!!@@END:		VERSES
!!@OTHER_CRIT_ED:   None
!!@ATTRIBUTION_ABOUT:	Secure
!!		<br>
!!		Among other sources, this poem appears in the authoritative manuscript II.306A, Biblioteca Comunale Ariostea, Ferrara, Italy (see Literary Sources).
!!@DATING:	Mid-1580s of earlier
!!@DEDICATEE:
!!@COMMENTARY:
!!@@END:		VERSEDATA
!!@@BEGIN:	SETTING
!!@CATALOGNUM:	Trm0326d
!!@RIMETITLE:	Lunge da gli occhi vostri
!!@SOLERTI:	326
!!@COMPOSER:	Dentice, Scipione
!!@PRINCEPSTITLE:	Il quinto libro de madrigali a cinque voci
!!@PRINCEPSLOC:	Napoli
!!@NORMLOC:	Naples
!!@NORMPUB:	Sottile
!!@NORMPUBSHORT:	Sottile
!!@PRINCEPSPUB:	Sottile
!!@PRINCEPSYEAR:	1607
!!@PRINCEPSRISM:	D 1665
!!@REPRINTS:	
!!@OVOICES:	5
!!@EXTANTVOICES:	5
!!@PARTBOOKS:	
!!@EXTPARTBOOKS:	
!!@OCLEFS:	C1,C2,C3,C4,F4
!!@OMENSURATION:	C
!!@OKEYSIG:	-
!!@FINAL:	A
!!@TIMPEDITOR:	Deutsch, Catherine
!!@NOTE:		
!!@@END:		SETTING
